X:41
M:2/4
L:1/8
K:G
cBAG|d2 ef|gfed|cBAG|d2 de|c2 cd|B2 Bc|A2 df|gedc|B2 cA|G2 GG|G2:|

